X:1
T:Title
%%score { ( 1 3 ) | ( 2 4 ) }
L:1/8
M:4/4
K:Bb
V:1 treble nm="Grand Piano"
V:3 treble 
V:2 bass 
V:4 bass 
V:1
 z4 z2[Q:1/4=94] [B,D]>[CE] | [DF]2 [Fd]2 [Ec]>[DB] [EA]>[EG] | [DF]2 [DF]2 [B,D]>[DF] [DB]>[Dc] | %3
 A>A A>B c2 F2 | d6 D>[CE] | [DF]2 [Fd]2 [Ec]>[DB] [EA]>[EG] | %6
 [DF]2 [DF]2 [F,B,D]>[B,DF] [DFB]>[DFc] | [FA]>[FA] [FA]>[GB] [=Ec]2 E2 | %8
[M:7/8] F-F-F- F- F2- F/ z/ |[M:1/4] d>c |[M:4/4] [Ec]2 [DB]2 [DB]<[Fd] c>B | [EB]2 [EA]2 z4 | %12
 A>_A =A>B c2 _d2 | d6 z2 | [Ec]2 [DB]2 [DB]<[Fd] c>B | [EB]2 [EA]2 z4 | A>_A =A>B c2 d2 | %17
[M:3/4] [DB]6 |] %18
V:2
 z4 z2 [B,,F,]>[B,,F,] | [B,,B,]2 [B,,B,]2 [B,,B,]>[B,,F,] [B,,G,]>[B,,A,] | %2
 [B,,B,]2 [B,,B,]2 [B,,F,]>[B,,B,] [B,,B,]>[B,,B,] | %3
 [F,CE]>[F,CE] [F,CE]>[F,G,E] [F,A,E]2[K:treble] [A,C]2 | [B,F]6[K:bass] [B,,F,B,]>[B,,F,] | %5
 [B,,B,]2 [B,,B,]2 [B,,B,]>[B,,F,] [B,,G,]>[B,,A,] | [B,,B,]2 [B,,B,]2 B,,>B,, B,,>B,, | %7
 [C,C]>[C,C] [C,C]>[C,C] [C,B,]2 [C,B,C]2 |[M:7/8] [A,C]2 B,2 C3 |[M:1/4] [F,A,F]>[F,A,E] | %10
[M:4/4] [B,,B,]2 [B,,F,]2 [B,,F,]<[B,,B,] E>D | F,<F, F,<F, [F,CE]<[F,C] E>E | %12
 [F,CE]>[F,=B,E] [F,CE]>[F,G,E] [F,A,E]2 [F,A,=E]2 | B,2 z2 z4 | %14
 [B,,F,]2 [B,,F,]2 [B,,F,]<[B,,B,] E>D | F,>F, F,>F, [F,CE]<[F,C] [F,A,E]>[F,B,E] | %16
 [F,CE]>[F,=B,E] [F,CE]>[F,G,E] [F,A,E]2 [F,A,F]2 |[M:3/4] [B,,B,]6 |] %18
V:3
 x8 | x8 | x8 | x8 | x8 | x8 | x8 | x8 |[M:7/8] z2 D2 E3 |[M:1/4] x2 |[M:4/4] x8 | %11
 C<C C<C A<[Ae] F>G | x8 | z2 B,2 B,2 [Fd]>[Ec] | x8 | C>C C>C A<[Ae] F>G | x8 |[M:3/4] x6 |] %18
V:4
 x8 | x8 | x8 | x6[K:treble] x2 | x6[K:bass] x2 | x8 | x8 | x8 |[M:7/8] F,-F,-F,- F,- F,2- F,/ z/ | %9
[M:1/4] x2 |[M:4/4] x8 | x8 | x8 | F2- [F,F-]>[D,F-] [B,,F]2 [B,,B,]>[B,,B,] | x8 | x8 | x8 | %17
[M:3/4] x6 |] %18

